X:1
T:Arnold, CM
T:Arnold, CM
T:Samuel Arnold (1740-1802)
T:Public Domain Courtesy of the Cyber Hymnal™
C:Samuel Arnold (1740-1802)
Z:Public Domain
Z:Courtesy of the Cyber Hymnal™
%%score ( 1 2 ) ( 3 4 )
L:1/8
M:3/4
K:Eb
V:1 treble 
V:2 treble 
V:3 bass 
V:4 bass 
V:1
 [GB]2 | ([GB]2 [EG]2) [GB]2 | ([FA]2 [DF]2) [FA]2 | ([EG]2 [FA]2) [EG]2 x2 | [DF]4 [DF]2 | %5
 [EG]2 [DA]2 [EB]2 | (c>B) A2 [EG]2 | ([EG]2 !fermata![DF]2) [EB]2 | (c>d) e2 [Ec]2 | %9
 (B2 G2) [EB]2 | (c>d e2) [Ec]2 | [EB]4 [EB]2 | ([Ec]2 [Ad]2) (eB) | ([FA]2 [EG]2) [DF]2 | E4 |] %15
V:2
 x2 | x6 | x6 | x8 | x6 | x6 | E4 x2 | x6 | E4 x2 | E4 x2 | E4 x2 | x6 | x4 G2 | x6 | E4 |] %15
V:3
 [E,B,]2 | [E,B,]4 [E,B,]2 | [B,,B,]4 [B,,B,]2 | B,4 D,2 [E,B,]2 | [B,,B,]4 [B,,B,]2 | %5
 B,4 [G,B,]2 | (A,>B,) C2 [E,B,]2 | !fermata![B,,B,]4 [G,B,]2 | (A,>B,) C2 A,2 | B,4 [E,G,]2 | %10
 (A,>B, C2) [A,,A,]2 | [E,G,]4 [E,G,]2 | A,4 [E,B,]2 | ([A,C]2 B,2) [B,,A,]2 | [E,G,]4 |] %15
V:4
 x2 | x6 | x6 | E,2 x6 | x6 | (E,2 F,2) x2 | A,4 x2 | x6 | A,4 A,2 | (G,2 E,2) x2 | A,,4 x2 | x6 | %12
 (A,2 F,2) x2 | x2 B,2 x2 | x4 |] %15

